icon/lg/vueuse.svg

<?xml version="1.0" encoding="UTF-8"?>
<svg viewBox="0 0 256 277" version="1.1" xmlns="http://www.w3.org/2000/svg" xmlns:xlink="http://www.w3.org/1999/xlink" preserveAspectRatio="xMidYMid" height="1em" width="1em">
  <g>
    <path d="M202.96751,0 L202.96751,148.145904 C202.96751,189.550728 169.404824,223.113414 128,223.113414 C86.5951764,223.113414 53.0324895,189.550728 53.0324895,148.145904 L53.0324895,0 L106.068168,0 L106.068168,148.145904 C106.068168,155.981393 110.248351,163.221683 117.034084,167.139428 C123.819816,171.057172 132.180184,171.057172 138.965916,167.139428 C145.751649,163.221683 149.931832,155.981393 149.931832,148.145904 L149.931832,0 L202.96751,0 Z" fill="#35495E"/>
    <path d="M256,0 L256,148.145904 C256,218.839944 198.69404,276.165039 128,276.165039 C57.3059597,276.165039 0,218.839944 0,148.145904 L0,0 L53.0324895,0 L53.0324895,148.145904 C53.0324895,189.550728 86.5983656,223.113414 128,223.113414 C169.401634,223.113414 202.96751,189.550728 202.96751,148.145904 L202.96751,0 L256,0 Z" fill="#41B883"/>
  </g>
</svg>

<svg width="256" height="277" xmlns="http://www.w3.org/2000/svg" preserveAspectRatio="xMidYMid"><path d="M202.968 0v148.146c0 41.405-33.563 74.967-74.968 74.967s-74.968-33.562-74.968-74.967V0h53.036v148.146a21.932 21.932 0 1 0 43.864 0V0h53.036Z" fill="#35495E"/><path d="M256 0v148.146c0 70.694-57.306 128.019-128 128.019S0 218.84 0 148.145V0h53.032v148.146c0 41.405 33.566 74.967 74.968 74.967s74.968-33.562 74.968-74.967V0H256Z" fill="#41B883"/></svg>
